X:1
T:Title
%%score { ( 1 3 ) | ( 2 4 ) }
L:1/8
M:6/8
K:A
V:1 treble nm="Grand Piano"
V:3 treble 
V:2 bass 
V:4 bass 
V:1
 z3 z2[Q:1/4=78] [CE] | [Ec][DB][CA] [CE][CA][CB] | AGF G2 F | EFG GAd | [Ec]3- [Ec]2 [CE] | %5
 [Ec][DB][CA] [CE][CA][CB] |[M:5/8] AGF G2 |[M:1/8] F |[M:3/4] EF GG cB |[M:5/8] [CA]-[CA]- [CA]3 | %10
[M:1/8] [CA] |[M:3/4] BB BB cd | [Ec]6 | [EB][EB] [EB][^DB] [DF][Dc] | [EB]6 | %15
 [Ec][Ec] [Ec][Ec] [Fd][=Ge] | [Fd]4 z2 | EF GG cB |[M:5/8] A-A- A3 |] %19
V:2
 z3 z2 [A,,A,] | [A,,A,][A,,A,][A,,A,] [A,,A,][A,,A,][A,,A,] | %2
 [E,B,D][E,B,D][E,B,D] [E,B,D]2 [E,A,D] | [E,G,D][E,A,D][E,B,D] [E,B,D][E,CE][E,G,E] | %4
 [A,,A,]3- [A,,A,]2 [A,,A,] | [A,,A,][A,,A,][A,,A,] [A,,A,][A,,A,][A,,A,] | %6
[M:5/8] [E,B,D][E,B,D][E,B,D] [E,B,D]2 |[M:1/8] [E,A,D] | %8
[M:3/4] [E,G,D][E,A,D] [E,B,D][E,B,D] [E,A,E][E,G,D] |[M:5/8] [A,,A,]-[A,,A,]- [A,,A,]3 | %10
[M:1/8] [A,,A,] |[M:3/4] [E,G,E][E,G,E] [E,G,E][E,G,E] [E,A,E][E,B,E] | %12
 [A,,A,]A,, A,, A,,2 [A,,A,] | [B,,G,][B,,G,] [B,,G,][B,,A,] [B,,B,][B,,A,] | %14
 [E,G,]E, E, E,2 [E,G,] | [A,,A,][A,,A,] [A,,A,][A,,A,] [A,,A,][C,A,] | %16
 [D,A,]D, D, [D,A,D]2 [D,A,D] | [E,G,D][E,A,D] [E,B,D][E,B,D] [E,A,E][E,G,D] |[M:5/8] z E,F, E,2 |] %19
V:3
 x6 | x6 | x6 | x6 | x6 | x6 |[M:5/8] x5 |[M:1/8] x |[M:3/4] x6 |[M:5/8] x5 |[M:1/8] x | %11
[M:3/4] x6 | z A, A, A,2 [Ec] | x6 | z G, G, G,2 E | x6 | z A, A, F2 F | x6 |[M:5/8] [A,C]CD C2 |] %19
V:4
 x6 | x6 | x6 | x6 | x6 | x6 |[M:5/8] x5 |[M:1/8] x |[M:3/4] x6 |[M:5/8] x5 |[M:1/8] x | %11
[M:3/4] x6 | x6 | x6 | x6 | x6 | x6 | x6 |[M:5/8] A,,-A,,- A,,3 |] %19

